!!!OTL: 89a. Das Lied vom jungen Grafen.
!!!ODT: 1782
!!!ARE: Europa, Mitteleuropa, Deutschland; France, Elsass
!!!SCT: E0089
!!!TXL: @@DE
!!!YEM: Copyright 1995, estate of Helmut Schaffrath.
**kern	**text
*ICvox	*
*M6/8	*
*k[b-]	*
*d:	*
!LO:TX:a:t=Langſam.	!
!LO:TX:a:t=Mündl, aus dem Elſaß. 1782.	!
{8a	Jch
=1	=1
4d	ſteh
8e	auf
4f	einem
8g	.
=2	=2
4a	hohen
8a	.
4g}	Berg,
{8a	ſeh
=3	=3
4b-/	nunter
8a	ins
8gL	tie-
8fJ	.
8g	-fe
=4	=4
[4.a	Thal,
8a]	.
8r}	.
{8a	da
=5	=5
8a	ſah
8b-/	ich
8cc	ein
8ccL	Schifflein
8b-J	.
8a	.
=6	=6
(4a	ſchwe-
8g)	.
4g}	-ben,
{8g	da
=7	=7
8f	ſah
8g	ich
8a	ein
8aL	Schifflein
8gJ	.
8f	.
=8	=8
(4f	ſchwe-
8e)	.
4e}	-ben,
{8a	da-
=9	=9
8aL	-rin
8gJ	.
8f	drei
8eL	Gra-
8dJ	.
8c#	-ſen
=10	=10
[4.d	ſaß'n.
8d]	.
8r}	.
==	==
!!!AGN: erzaehlendes Volks - Lied, Sage, Liebe, Leid, Ballade ?
!!!ONB: ESAC (Essen Associative Code) Database: ERK1
!!!AMT: compound duple
!!!AIN: vox
!!!EED: Helmut Schaffrath
!!!EEV: 1.0
!!!GTL: Liebesgeschichten mit tragischem Schluss
!!!URL-scan: https://rosdok.uni-rostock.de/mcrviewer/recordIdentifier/rosdok_ppn745146120/iview2/phys_0377.iview2?x=-209.41713865975294&y=1682.2570933767129&scale=0.554360769283424&rotation=0&layout=singlePageLayout
!!!ENC: Anna Maria Matuszewska
!!!EEV: 2024/11/28
*-	*-
